public/logos/G4.svg

<?xml version="1.0" encoding="UTF-8"?>
<svg xmlns="http://www.w3.org/2000/svg" xmlns:xlink="http://www.w3.org/1999/xlink" width="154.89pt" height="59pt" viewBox="0 0 154.89 59" version="1.1">
<defs>
<clipPath id="clip1">
  <path d="M 0 20 L 154.890625 20 L 154.890625 59 L 0 59 Z M 0 20 "/>
</clipPath>
</defs>
<g id="surface1">
<path style=" stroke:none;fill-rule:nonzero;fill:rgb(96.643066%,54.995728%,8.248901%);fill-opacity:1;" d="M 117.953125 25.804688 L 106.0625 23.96875 L 116.941406 18.46875 C 117.097656 18.386719 117.175781 18.207031 117.121094 18.039062 C 117.066406 17.871094 116.898438 17.765625 116.726562 17.796875 L 104.644531 19.675781 L 113.320312 11.089844 C 113.445312 10.964844 113.460938 10.769531 113.359375 10.628906 C 113.257812 10.484375 113.0625 10.4375 112.90625 10.519531 L 102.078125 16.074219 L 107.535156 5.289062 C 107.613281 5.132812 107.566406 4.941406 107.421875 4.839844 C 107.28125 4.734375 107.082031 4.75 106.960938 4.878906 L 98.394531 13.542969 L 100.40625 1.484375 C 100.4375 1.308594 100.332031 1.140625 100.164062 1.085938 C 100 1.03125 99.816406 1.105469 99.734375 1.261719 L 94.132812 12.207031 L 92.285156 0.300781 C 92.257812 0.128906 92.109375 0 91.929688 0 C 91.757812 0 91.605469 0.128906 91.578125 0.300781 L 89.710938 12.199219 L 84.160156 1.210938 C 84.082031 1.050781 83.898438 0.976562 83.730469 1.03125 C 83.566406 1.085938 83.460938 1.253906 83.488281 1.429688 L 85.492188 13.644531 L 76.8125 4.765625 C 76.691406 4.640625 76.492188 4.625 76.347656 4.726562 C 76.203125 4.828125 76.160156 5.023438 76.238281 5.179688 L 81.886719 16.203125 L 70.828125 10.484375 C 70.667969 10.398438 70.476562 10.445312 70.371094 10.589844 C 70.269531 10.730469 70.285156 10.929688 70.410156 11.054688 L 79.292969 19.726562 L 67.003906 17.730469 C 66.828125 17.703125 66.660156 17.804688 66.605469 17.972656 C 66.550781 18.140625 66.628906 18.324219 66.785156 18.402344 L 77.832031 23.945312 L 65.648438 25.804688 C 65.464844 25.832031 65.332031 25.996094 65.347656 26.183594 C 65.359375 26.371094 65.519531 26.511719 65.703125 26.511719 L 117.898438 26.511719 C 118.085938 26.511719 118.238281 26.371094 118.253906 26.183594 C 118.269531 25.996094 118.136719 25.832031 117.953125 25.804688 "/>
<g clip-path="url(#clip1)" clip-rule="nonzero">
<path style=" stroke:none;fill-rule:nonzero;fill:rgb(17.680359%,39.74762%,69.390869%);fill-opacity:1;" d="M 38.769531 20.054688 L 32.453125 20.054688 C 32.355469 20.054688 32.265625 20.09375 32.199219 20.160156 C 32.132812 20.226562 32.09375 20.320312 32.09375 20.417969 L 32.09375 49.960938 C 32.09375 50.050781 32.132812 50.144531 32.199219 50.210938 C 32.265625 50.277344 32.355469 50.316406 32.453125 50.316406 L 38.769531 50.316406 C 38.863281 50.316406 38.953125 50.277344 39.019531 50.210938 C 39.085938 50.144531 39.125 50.050781 39.125 49.960938 L 39.125 20.417969 C 39.125 20.320312 39.085938 20.226562 39.019531 20.160156 C 38.953125 20.09375 38.863281 20.054688 38.769531 20.054688 M 28.742188 20.054688 L 22.425781 20.054688 C 22.335938 20.054688 22.242188 20.097656 22.171875 20.160156 C 22.105469 20.226562 22.070312 20.320312 22.070312 20.417969 L 22.070312 49.960938 C 22.070312 50.050781 22.105469 50.144531 22.171875 50.210938 C 22.242188 50.277344 22.335938 50.316406 22.425781 50.316406 L 28.742188 50.316406 C 28.835938 50.316406 28.929688 50.277344 28.996094 50.210938 C 29.0625 50.144531 29.101562 50.050781 29.101562 49.960938 L 29.101562 20.417969 C 29.101562 20.320312 29.066406 20.226562 28.996094 20.160156 C 28.929688 20.09375 28.835938 20.054688 28.742188 20.054688 M 52.210938 28.824219 C 48.601562 28.816406 45.914062 30.300781 44.171875 32.445312 C 42.425781 34.589844 41.59375 37.375 41.59375 40.027344 C 41.589844 43.277344 42.605469 45.972656 44.539062 47.84375 C 46.46875 49.710938 49.28125 50.730469 52.796875 50.726562 C 55.570312 50.726562 58.148438 50.3125 60.289062 49.417969 C 60.445312 49.351562 60.535156 49.1875 60.503906 49.019531 L 59.671875 44.742188 C 59.652344 44.640625 59.589844 44.550781 59.503906 44.5 C 59.410156 44.449219 59.304688 44.4375 59.207031 44.472656 C 57.535156 45.039062 55.839844 45.320312 53.710938 45.320312 C 50.988281 45.304688 48.773438 44.261719 48.382812 42.167969 L 61.058594 42.167969 C 61.230469 42.167969 61.378906 42.046875 61.410156 41.878906 C 61.503906 41.402344 61.632812 40.433594 61.632812 39.324219 C 61.632812 36.75 60.996094 34.140625 59.492188 32.148438 C 57.988281 30.15625 55.585938 28.816406 52.210938 28.824219 M 48.34375 37.136719 C 48.628906 35.605469 49.640625 33.726562 51.882812 33.742188 C 54.261719 33.742188 54.929688 35.671875 55.039062 37.136719 Z M 85.03125 29.285156 L 79.546875 29.285156 C 79.363281 29.285156 79.210938 29.425781 79.191406 29.613281 L 79.0625 31.183594 C 77.933594 29.769531 76.179688 28.816406 73.695312 28.824219 C 71.085938 28.820312 68.671875 29.90625 66.929688 31.839844 C 65.1875 33.773438 64.113281 36.546875 64.113281 39.902344 C 64.113281 42.882812 65.03125 45.441406 66.617188 47.265625 C 68.203125 49.082031 70.464844 50.152344 73.078125 50.148438 C 75.167969 50.152344 77.003906 49.394531 78.285156 48.054688 L 78.285156 48.460938 C 78.246094 52.078125 76.234375 53.417969 73.363281 53.460938 C 71.03125 53.464844 68.871094 52.691406 67.640625 51.972656 C 67.542969 51.917969 67.425781 51.910156 67.320312 51.953125 C 67.222656 51.996094 67.140625 52.082031 67.113281 52.191406 L 65.871094 57.011719 C 65.828125 57.167969 65.898438 57.335938 66.042969 57.414062 C 67.960938 58.457031 71.554688 59 74.300781 59 C 77.339844 59 79.679688 58.414062 81.992188 56.417969 C 84.429688 54.277344 85.230469 50.949219 85.230469 47.003906 L 85.230469 35.707031 C 85.230469 32.679688 85.308594 30.984375 85.386719 29.664062 C 85.394531 29.566406 85.359375 29.46875 85.289062 29.398438 C 85.226562 29.328125 85.128906 29.285156 85.03125 29.285156 M 78.195312 40.898438 C 78.195312 41.421875 78.144531 42.058594 78.007812 42.496094 C 77.625 43.816406 76.488281 44.777344 74.980469 44.78125 C 72.625 44.773438 71.246094 42.679688 71.226562 39.738281 C 71.246094 36.140625 72.941406 34.320312 75.023438 34.316406 C 76.597656 34.328125 77.644531 35.292969 78.085938 36.84375 C 78.152344 37.175781 78.195312 37.558594 78.195312 37.90625 Z M 139.242188 34.199219 C 138.871094 32.941406 138.304688 31.902344 137.566406 31.085938 C 136.195312 29.554688 134.261719 28.820312 132.101562 28.824219 C 129.058594 28.824219 127.046875 30.335938 125.984375 31.648438 L 125.773438 29.605469 C 125.75 29.421875 125.597656 29.285156 125.417969 29.285156 L 119.929688 29.285156 C 119.835938 29.285156 119.738281 29.328125 119.671875 29.394531 C 119.605469 29.464844 119.570312 29.5625 119.574219 29.660156 C 119.660156 31.480469 119.742188 33.59375 119.742188 36.121094 L 119.742188 49.960938 C 119.742188 50.050781 119.785156 50.144531 119.851562 50.210938 C 119.917969 50.277344 120.011719 50.316406 120.101562 50.316406 L 126.414062 50.316406 C 126.507812 50.316406 126.601562 50.277344 126.664062 50.210938 C 126.730469 50.144531 126.773438 50.050781 126.773438 49.960938 L 126.773438 38.242188 C 126.769531 37.675781 126.820312 37.121094 126.953125 36.792969 C 127.390625 35.710938 128.308594 34.648438 129.859375 34.648438 C 131.894531 34.664062 132.660156 36.121094 132.703125 38.695312 L 132.703125 49.960938 C 132.703125 50.050781 132.738281 50.144531 132.804688 50.210938 C 132.871094 50.277344 132.964844 50.316406 133.058594 50.316406 L 139.378906 50.316406 C 139.472656 50.316406 139.566406 50.277344 139.632812 50.210938 C 139.695312 50.144531 139.738281 50.050781 139.738281 49.960938 L 139.738281 37.953125 C 139.738281 36.695312 139.601562 35.566406 139.347656 34.566406 Z M 94.910156 28.511719 L 88.59375 28.511719 C 88.5 28.511719 88.40625 28.546875 88.339844 28.617188 C 88.273438 28.679688 88.234375 28.773438 88.234375 28.867188 L 88.234375 49.9375 C 88.234375 50.03125 88.273438 50.125 88.339844 50.191406 C 88.40625 50.257812 88.5 50.296875 88.59375 50.296875 L 94.910156 50.296875 C 95.003906 50.296875 95.097656 50.257812 95.164062 50.191406 C 95.230469 50.125 95.265625 50.03125 95.265625 49.9375 L 95.265625 28.867188 C 95.265625 28.773438 95.230469 28.679688 95.164062 28.617188 C 95.097656 28.546875 95.003906 28.511719 94.910156 28.511719 M 154.792969 29.390625 C 154.726562 29.324219 154.636719 29.285156 154.539062 29.285156 L 150.371094 29.285156 L 150.371094 24.121094 C 150.371094 24.007812 150.320312 23.898438 150.230469 23.832031 C 150.144531 23.765625 150.027344 23.742188 149.921875 23.773438 L 143.730469 25.476562 C 143.574219 25.519531 143.46875 25.660156 143.46875 25.820312 L 143.46875 29.285156 L 140.742188 29.285156 C 140.648438 29.285156 140.554688 29.324219 140.488281 29.390625 C 140.421875 29.457031 140.382812 29.550781 140.382812 29.640625 L 140.382812 34.035156 C 140.382812 34.371094 140.488281 34.546875 140.488281 34.546875 C 140.554688 34.613281 140.648438 34.648438 140.742188 34.648438 L 143.46875 34.648438 L 143.46875 42.605469 C 143.46875 45.511719 144.050781 47.5625 145.304688 48.875 C 146.433594 50 148.226562 50.726562 150.339844 50.730469 C 152.125 50.726562 153.675781 50.488281 154.539062 50.167969 C 154.683594 50.117188 154.777344 49.980469 154.777344 49.832031 L 154.730469 45.050781 C 154.726562 44.941406 154.679688 44.839844 154.59375 44.773438 C 154.511719 44.707031 154.398438 44.679688 154.296875 44.707031 C 153.734375 44.828125 153.367188 44.863281 152.507812 44.863281 C 151.636719 44.855469 151.179688 44.628906 150.859375 44.160156 C 150.535156 43.679688 150.371094 42.847656 150.375 41.648438 L 150.375 34.648438 L 154.539062 34.648438 C 154.636719 34.648438 154.726562 34.613281 154.792969 34.542969 C 154.859375 34.476562 154.894531 34.386719 154.894531 34.292969 L 154.894531 29.640625 C 154.894531 29.550781 154.859375 29.457031 154.792969 29.390625 M 116.730469 44.851562 L 116.730469 37.484375 C 116.730469 34.957031 116.191406 32.597656 114.738281 30.851562 C 113.285156 29.097656 110.929688 28.027344 107.476562 28.03125 C 103.703125 28.03125 100.867188 29.128906 99.402344 29.980469 C 99.257812 30.0625 99.191406 30.230469 99.234375 30.386719 L 100.398438 34.558594 C 100.429688 34.667969 100.507812 34.753906 100.613281 34.796875 C 100.71875 34.839844 100.835938 34.828125 100.933594 34.769531 C 102.195312 33.992188 104.367188 33.273438 106.355469 33.277344 C 109.242188 33.324219 109.625 34.558594 109.691406 35.539062 C 106.214844 35.582031 103.300781 36.230469 101.199219 37.566406 C 99.027344 38.941406 97.757812 41.105469 97.765625 43.949219 C 97.773438 47.472656 100.378906 50.761719 104.695312 50.769531 L 104.699219 50.769531 C 106.964844 50.769531 108.988281 49.992188 110.390625 48.511719 L 110.652344 50 C 110.683594 50.171875 110.832031 50.296875 111.007812 50.296875 L 116.707031 50.296875 C 116.816406 50.296875 116.917969 50.246094 116.988281 50.164062 C 117.054688 50.078125 117.078125 49.964844 117.054688 49.859375 C 116.8125 48.757812 116.726562 46.824219 116.730469 44.851562 M 109.90625 42.5625 C 109.90625 42.910156 109.863281 43.253906 109.789062 43.558594 C 109.4375 44.667969 108.222656 45.617188 106.859375 45.613281 C 105.566406 45.578125 104.742188 44.996094 104.714844 43.558594 C 104.726562 42.492188 105.238281 41.855469 106.214844 41.378906 C 107.117188 40.957031 108.414062 40.753906 109.90625 40.726562 Z M 18.964844 37.484375 C 18.964844 34.957031 18.425781 32.597656 16.972656 30.851562 C 15.523438 29.097656 13.164062 28.027344 9.710938 28.03125 C 5.9375 28.03125 3.101562 29.128906 1.632812 29.980469 C 1.492188 30.0625 1.425781 30.230469 1.46875 30.386719 L 2.632812 34.558594 C 2.664062 34.667969 2.742188 34.753906 2.847656 34.796875 C 2.953125 34.839844 3.070312 34.828125 3.164062 34.769531 C 4.429688 33.992188 6.601562 33.273438 8.589844 33.277344 C 11.476562 33.324219 11.859375 34.558594 11.925781 35.539062 C 8.449219 35.582031 5.535156 36.230469 3.433594 37.566406 C 1.261719 38.941406 -0.0078125 41.105469 0 43.949219 C 0.0078125 47.472656 2.613281 50.761719 6.929688 50.769531 L 6.9375 50.769531 C 9.199219 50.769531 11.21875 49.992188 12.625 48.511719 L 12.886719 50 C 12.917969 50.171875 13.066406 50.296875 13.242188 50.296875 L 18.941406 50.296875 C 19.050781 50.296875 19.152344 50.246094 19.222656 50.164062 C 19.289062 50.078125 19.3125 49.964844 19.289062 49.859375 C 19.046875 48.757812 18.964844 46.824219 18.964844 44.851562 Z M 12.140625 42.5625 C 12.140625 42.910156 12.097656 43.253906 12.023438 43.558594 C 11.667969 44.667969 10.457031 45.617188 9.089844 45.613281 C 7.800781 45.578125 6.976562 44.996094 6.949219 43.558594 C 6.960938 42.492188 7.472656 41.855469 8.449219 41.378906 C 9.351562 40.957031 10.648438 40.753906 12.140625 40.726562 L 12.140625 42.5625 "/>
</g>
<path style=" stroke:none;fill-rule:nonzero;fill:rgb(97.401428%,91.386414%,4.067993%);fill-opacity:1;" d="M 103.359375 26.539062 C 103.367188 26.398438 103.300781 26.308594 103.203125 26.296875 L 98.117188 25.511719 L 102.773438 23.15625 C 102.855469 23.113281 102.894531 23.019531 102.867188 22.933594 C 102.835938 22.847656 102.75 22.792969 102.660156 22.804688 L 97.488281 23.613281 L 101.203125 19.933594 C 101.269531 19.871094 101.277344 19.765625 101.222656 19.691406 C 101.171875 19.617188 101.070312 19.59375 100.988281 19.636719 L 96.347656 22.015625 L 98.683594 17.398438 C 98.726562 17.316406 98.703125 17.21875 98.625 17.164062 C 98.550781 17.109375 98.449219 17.117188 98.386719 17.183594 L 94.71875 20.890625 L 95.582031 15.730469 C 95.597656 15.640625 95.542969 15.550781 95.457031 15.523438 C 95.367188 15.492188 95.273438 15.53125 95.230469 15.617188 L 92.832031 20.300781 L 92.042969 15.207031 C 92.027344 15.113281 91.949219 15.046875 91.855469 15.046875 C 91.765625 15.046875 91.6875 15.113281 91.671875 15.207031 L 90.875 20.300781 L 88.5 15.59375 C 88.453125 15.511719 88.359375 15.472656 88.273438 15.5 C 88.1875 15.53125 88.132812 15.617188 88.144531 15.707031 L 89.003906 20.933594 L 85.289062 17.132812 C 85.226562 17.070312 85.121094 17.058594 85.050781 17.113281 C 84.972656 17.164062 84.949219 17.265625 84.992188 17.347656 L 87.40625 22.070312 L 82.671875 19.621094 C 82.589844 19.578125 82.492188 19.601562 82.433594 19.675781 C 82.382812 19.753906 82.390625 19.855469 82.453125 19.917969 L 86.257812 23.632812 L 80.996094 22.78125 C 80.90625 22.765625 80.816406 22.816406 80.789062 22.90625 C 80.765625 22.992188 80.800781 23.085938 80.882812 23.128906 L 85.609375 25.5 L 80.398438 26.296875 C 80.300781 26.308594 80.230469 26.398438 80.238281 26.539062 L 103.359375 26.539062 "/>
</g>
</svg>

<svg xmlns="http://www.w3.org/2000/svg" width="206.52" height="59pt" viewBox="0 0 154.89 59"><defs><clipPath id="a"><path d="M0 20h154.89v39H0Zm0 0"/></clipPath></defs><path d="m117.953 25.805-11.89-1.836 10.878-5.5a.36.36 0 0 0 .18-.43.35.35 0 0 0-.394-.242l-12.082 1.879 8.675-8.586a.357.357 0 0 0-.414-.57l-10.828 5.554 5.457-10.785a.355.355 0 0 0-.113-.45.347.347 0 0 0-.461.04l-8.566 8.664 2.011-12.059a.355.355 0 0 0-.242-.398.36.36 0 0 0-.43.176l-5.601 10.945L92.285.301a.358.358 0 0 0-.707 0l-1.867 11.898-5.55-10.988a.354.354 0 0 0-.43-.18.36.36 0 0 0-.243.399l2.004 12.215-8.68-8.88a.359.359 0 0 0-.574.414l5.649 11.024-11.059-5.719a.354.354 0 0 0-.457.106.36.36 0 0 0 .04.465l8.882 8.672-12.29-1.997a.36.36 0 0 0-.398.243.36.36 0 0 0 .18.43l11.047 5.542-12.184 1.86a.353.353 0 0 0-.3.379.354.354 0 0 0 .355.328h52.195c.188 0 .34-.14.356-.328a.353.353 0 0 0-.3-.38" style="stroke:none;fill-rule:nonzero;fill:#f68c15;fill-opacity:1"/><g clip-path="url(#a)"><path d="M38.77 20.055h-6.317a.357.357 0 0 0-.36.363v29.543a.36.36 0 0 0 .36.355h6.317a.362.362 0 0 0 .355-.355V20.418a.37.37 0 0 0-.105-.258.36.36 0 0 0-.25-.105m-10.028 0h-6.316a.4.4 0 0 0-.254.105.36.36 0 0 0-.102.258v29.543c0 .09.035.184.102.25.07.066.164.105.254.105h6.316a.362.362 0 0 0 .36-.355V20.418a.35.35 0 0 0-.106-.258.36.36 0 0 0-.254-.105m23.469 8.77c-3.61-.009-6.297 1.476-8.04 3.62-1.745 2.145-2.577 4.93-2.577 7.582-.004 3.25 1.011 5.946 2.945 7.817 1.93 1.867 4.742 2.886 8.258 2.883 2.773 0 5.351-.414 7.492-1.309a.36.36 0 0 0 .215-.398l-.832-4.278a.36.36 0 0 0-.168-.242.36.36 0 0 0-.297-.027c-1.672.566-3.367.847-5.496.847-2.723-.015-4.938-1.058-5.328-3.152h12.676c.171 0 .32-.121.351-.29.094-.476.223-1.444.223-2.554 0-2.574-.637-5.183-2.14-7.176-1.505-1.992-3.907-3.332-7.282-3.324m-3.867 8.313c.285-1.532 1.297-3.41 3.539-3.395 2.379 0 3.047 1.93 3.156 3.395Zm36.687-7.852h-5.484a.36.36 0 0 0-.356.328l-.129 1.57c-1.128-1.413-2.882-2.367-5.367-2.359a9.01 9.01 0 0 0-6.765 3.016c-1.743 1.933-2.817 4.707-2.817 8.062 0 2.98.918 5.54 2.504 7.364 1.586 1.816 3.848 2.886 6.461 2.882 2.09.004 3.926-.753 5.207-2.093v.406c-.039 3.617-2.05 4.957-4.922 5-2.332.004-4.492-.77-5.722-1.488a.37.37 0 0 0-.32-.02.36.36 0 0 0-.208.238l-1.242 4.82a.35.35 0 0 0 .172.403C67.961 58.457 71.555 59 74.301 59c3.039 0 5.379-.586 7.691-2.582 2.438-2.14 3.238-5.469 3.238-9.414V35.707c0-3.027.079-4.723.157-6.043a.34.34 0 0 0-.098-.266.35.35 0 0 0-.258-.113m-6.836 11.613c0 .524-.05 1.16-.187 1.598-.383 1.32-1.52 2.281-3.028 2.285-2.355-.008-3.734-2.101-3.753-5.043.02-3.597 1.714-5.418 3.796-5.422 1.575.012 2.622.977 3.063 2.528.066.332.11.715.11 1.062Zm61.047-6.699c-.37-1.258-.937-2.297-1.676-3.113-1.37-1.531-3.304-2.266-5.464-2.262-3.043 0-5.055 1.512-6.118 2.824l-.21-2.043a.36.36 0 0 0-.356-.32h-5.488a.38.38 0 0 0-.258.11.37.37 0 0 0-.098.265c.086 1.82.168 3.934.168 6.461v13.84a.367.367 0 0 0 .36.355h6.312a.367.367 0 0 0 .36-.355V38.242c-.004-.566.046-1.12.18-1.449.437-1.082 1.355-2.145 2.905-2.145 2.036.016 2.801 1.473 2.844 4.047v11.266c0 .09.035.184.102.25s.16.105.254.105h6.32c.094 0 .187-.039.254-.105a.38.38 0 0 0 .105-.25V37.953c0-1.258-.136-2.387-.39-3.387ZM94.91 28.512h-6.316a.35.35 0 0 0-.254.105.35.35 0 0 0-.106.25v21.07c0 .094.04.188.106.254.066.067.16.106.254.106h6.316c.094 0 .188-.04.254-.106a.36.36 0 0 0 .102-.254v-21.07a.35.35 0 0 0-.102-.25.35.35 0 0 0-.254-.105m59.883.879a.36.36 0 0 0-.254-.106h-4.168v-5.164a.36.36 0 0 0-.14-.289.35.35 0 0 0-.31-.059l-6.19 1.704a.355.355 0 0 0-.262.343v3.465h-2.727a.362.362 0 0 0-.36.355v4.395c0 .336.106.512.106.512a.36.36 0 0 0 .254.101h2.727v7.957c0 2.907.582 4.958 1.836 6.27 1.129 1.125 2.922 1.852 5.035 1.855 1.785-.003 3.336-.242 4.2-.562a.36.36 0 0 0 .237-.336l-.047-4.781a.36.36 0 0 0-.136-.278c-.082-.066-.196-.093-.297-.066-.563.121-.93.156-1.79.156-.87-.008-1.327-.234-1.648-.703-.324-.48-.488-1.312-.484-2.512v-7h4.164a.351.351 0 0 0 .355-.355v-4.652a.36.36 0 0 0-.101-.25M116.73 44.85v-7.367c0-2.527-.539-4.886-1.992-6.632-1.453-1.754-3.808-2.825-7.261-2.82-3.774 0-6.61 1.097-8.075 1.948a.36.36 0 0 0-.168.407l1.164 4.172c.032.109.11.195.215.238a.36.36 0 0 0 .32-.027c1.262-.778 3.434-1.497 5.422-1.493 2.887.047 3.27 1.282 3.336 2.262-3.476.043-6.39.691-8.492 2.027-2.172 1.375-3.441 3.54-3.433 6.383.007 3.524 2.613 6.813 6.93 6.82h.003c2.266 0 4.29-.777 5.692-2.257l.261 1.488a.36.36 0 0 0 .356.297h5.699c.11 0 .211-.05.281-.133.067-.086.09-.2.067-.305-.243-1.101-.328-3.035-.325-5.007m-6.824-2.29c0 .348-.043.692-.117.997-.352 1.109-1.566 2.058-2.93 2.054-1.293-.035-2.117-.617-2.144-2.054.012-1.067.523-1.704 1.5-2.18.902-.422 2.2-.625 3.691-.652Zm-90.941-5.078c0-2.527-.54-4.886-1.992-6.632-1.45-1.754-3.809-2.825-7.262-2.82-3.774 0-6.61 1.097-8.078 1.948a.36.36 0 0 0-.164.407l1.164 4.172c.031.109.11.195.215.238a.35.35 0 0 0 .316-.027c1.266-.778 3.438-1.497 5.426-1.493 2.887.047 3.27 1.282 3.336 2.262-3.477.043-6.39.691-8.492 2.027C1.262 38.941-.008 41.106 0 43.95c.008 3.524 2.613 6.813 6.93 6.82h.008c2.261 0 4.28-.777 5.687-2.257L12.887 50a.36.36 0 0 0 .355.297h5.7c.109 0 .21-.05.28-.133a.37.37 0 0 0 .067-.305c-.242-1.101-.324-3.035-.324-5.007Zm-6.824 5.078c0 .348-.043.692-.118.997-.355 1.109-1.566 2.058-2.933 2.054-1.29-.035-2.113-.617-2.14-2.054.01-1.067.523-1.704 1.5-2.18.902-.422 2.198-.625 3.69-.652z" style="stroke:none;fill-rule:nonzero;fill:#2d65b1;fill-opacity:1"/></g><path d="M103.36 26.54c.007-.142-.06-.231-.157-.243l-5.086-.785 4.656-2.356a.19.19 0 0 0 .094-.222.195.195 0 0 0-.207-.13l-5.172.81 3.715-3.68a.185.185 0 0 0 .02-.243.18.18 0 0 0-.235-.054l-4.64 2.379 2.336-4.618a.18.18 0 0 0-.059-.234.18.18 0 0 0-.238.02l-3.668 3.707.863-5.16a.186.186 0 0 0-.125-.208.18.18 0 0 0-.227.094l-2.398 4.684-.789-5.094a.19.19 0 0 0-.188-.16.19.19 0 0 0-.183.16l-.797 5.094-2.375-4.707a.194.194 0 0 0-.227-.094.195.195 0 0 0-.128.207l.859 5.227-3.715-3.801a.184.184 0 0 0-.238-.02.18.18 0 0 0-.059.235l2.414 4.722-4.734-2.449a.19.19 0 0 0-.238.055.194.194 0 0 0 .02.242l3.804 3.715-5.262-.852a.18.18 0 0 0-.207.125.19.19 0 0 0 .094.223l4.726 2.371-5.21.797c-.098.012-.169.101-.16.242z" style="stroke:none;fill-rule:nonzero;fill:#f8e90a;fill-opacity:1"/></svg>
